svg/fluentui-system-icons/ic_fluent_arrow_reply_down_16_filled.svg

<svg width="16" height="16" viewBox="0 0 16 16" fill="none" xmlns="http://www.w3.org/2000/svg">
<path d="M4.30981 8.00406L6.56567 5.74832C6.85856 5.45543 6.85856 4.98056 6.56567 4.68766C6.2994 4.4214 5.88274 4.39719 5.58913 4.61505L5.50501 4.68766L1.96948 8.2232L1.90091 8.30199L1.86037 8.36136L1.81129 8.45563L1.77848 8.54743L1.76259 8.61524L1.75368 8.67713L1.75 8.77074L1.75368 8.82993L1.7693 8.92388L1.79975 9.02316L1.84617 9.1217L1.88098 9.17739C1.90656 9.21479 1.93612 9.2505 1.96948 9.28386L1.90091 9.20506C1.92193 9.2329 1.94485 9.25923 1.96948 9.28386L5.50501 12.8194C5.7979 13.1123 6.27278 13.1123 6.56567 12.8194C6.83194 12.5531 6.85614 12.1365 6.63829 11.8429L6.56567 11.7587L4.30981 9.50406L7.99981 9.50353C11.6513 9.50353 14.1323 7.42689 14.2457 4.46647L14.2498 4.25353C14.2498 3.83931 13.914 3.50353 13.4998 3.50353C13.0856 3.50353 12.7498 3.83931 12.7498 4.25353C12.7498 6.38239 11.0578 7.91141 8.25742 7.99951L7.99981 8.00353L4.30981 8.00406L6.56567 5.74832L4.30981 8.00406Z" fill="#212121"/>
</svg>

<svg xmlns="http://www.w3.org/2000/svg" width="16" height="16"><path d="m4.31 8.004 2.256-2.256a.75.75 0 0 0-.977-1.133l-.084.073-3.536 3.535-.068.079-.04.06-.05.094-.033.091-.015.068-.01.062-.003.094.004.059.015.094.03.1.047.098.035.055a.747.747 0 0 0 .088.107l-.068-.079a.754.754 0 0 0 .068.079l3.536 3.535a.75.75 0 0 0 1.133-.976l-.072-.084L4.31 9.504H8c3.651 0 6.132-2.077 6.246-5.038l.004-.212a.75.75 0 0 0-1.5 0c0 2.128-1.692 3.657-4.493 3.746L8 8.004H4.31l2.256-2.256L4.31 8.004Z"/></svg>
